X:243
T:B243-  Jenny's delight
Q:1/4=120
L:1/4
M:6/4
K:G
(B/2c/2)|d(e/2d/2) (c/2B/2)e2f/2g/2|\
d(c/2B/2) (A/2G/2)A2(E/2F/2)|GFGA2B/2c/2|\
d(B/2c/2) (B/2A/2)A2d|BA(G/2F/2)ADE|\
=F3/2E/2FE2c/2d/2|e(d/2c/2) (B/2A/2)d2c/2B/2|\
A3/2G/2FG2":s:"g|f(e/2d/2) (e/2f/2)d(c/2B/2) (A/2G/2)|\
ceEF2c/2c/2|c2B/2c/2AEG|G3/2A/2F.G2|]

